app/client/src/assets/icons/blueprintjs/20px/th-disconnect.svg

<?xml version="1.0" encoding="UTF-8"?>
<svg width="20px" height="20px" viewBox="0 0 20 20" version="1.1" xmlns="http://www.w3.org/2000/svg" xmlns:xlink="http://www.w3.org/1999/xlink">
    <!-- Generator: Sketch 54.1 (76490) - https://sketchapp.com -->
    <title>th-disconnect</title>
    <desc>Created with Sketch.</desc>
    <g id="th-disconnect" stroke="none" stroke-width="1" fill="none" fill-rule="evenodd">
        <g fill="#000000" fill-rule="nonzero" id="Combined-Shape">
            <path d="M14.250365,1 L19,1 C19.5,1 20,1.5 20,2 L20,18 C20,18.5 19.5,19 19,19 L11.778797,19 L12.0565748,17 L18,17 L18,14 L12.4732414,14 L12.6121303,13 L18,13 L18,10 L13.028797,10 L13.1676859,9 L18,9 L18,6 L13.5843525,6 L14.2214768,1.41270511 C14.240741,1.27400335 14.2501937,1.13620128 14.250365,1 Z M8.22120303,1 L7.52675858,6 L2,6 L2,9 L7.11009191,9 L6.97120303,10 L2,10 L2,13 L6.55453636,13 L6.41564747,14 L2,14 L2,17 L5.9989808,17 L5.77852318,18.5872949 C5.75925905,18.7259967 5.74980633,18.8637987 5.74963495,19 L1,19 C0.4,19 0,18.5 0,18 L0,2 C0,1.5 0.4,1 1,1 L8.22120303,1 Z M10.2595077,0.862431629 C10.3354846,0.315397851 10.8405346,-0.0664691867 11.3875684,0.00950772682 C11.9346021,0.0854846403 12.3164692,0.590534594 12.2404923,1.13756837 L9.74049227,19.1375684 C9.66451536,19.6846021 9.15946541,20.0664692 8.61243163,19.9904923 C8.06539785,19.9145154 7.68353081,19.4094654 7.75950773,18.8624316 L10.2595077,0.862431629 Z"></path>
        </g>
    </g>
</svg>

<svg xmlns="http://www.w3.org/2000/svg" width="20" height="20"><path fill-rule="nonzero" d="M14.25 1H19c.5 0 1 .5 1 1v16c0 .5-.5 1-1 1h-7.221l.278-2H18v-3h-5.527l.14-1H18v-3h-4.971l.139-1H18V6h-4.416l.637-4.587c.02-.139.03-.277.03-.413ZM8.221 1l-.694 5H2v3h5.11l-.139 1H2v3h4.555l-.14 1H2v3h3.999l-.22 1.587c-.02.139-.03.277-.03.413H1c-.6 0-1-.5-1-1V2c0-.5.4-1 1-1h7.221ZM10.26.862a1 1 0 0 1 1.98.276l-2.5 18a1 1 0 0 1-1.98-.276l2.5-18Z"/></svg>
